images/3246530.svg

<?xml version="1.0" encoding="UTF-8"?>
<svg xmlns="http://www.w3.org/2000/svg" xmlns:xlink="http://www.w3.org/1999/xlink" width="300pt" height="300pt" viewBox="0 0 300 300" version="1.1">
<defs>
<g>
<symbol overflow="visible" id="glyph0-0">
<path style="stroke:none;" d="M 0.796875 2.828125 L 0.796875 -11.28125 L 8.796875 -11.28125 L 8.796875 2.828125 Z M 1.703125 1.9375 L 7.90625 1.9375 L 7.90625 -10.390625 L 1.703125 -10.390625 Z M 1.703125 1.9375 "/>
</symbol>
<symbol overflow="visible" id="glyph0-1">
<path style="stroke:none;" d="M 1.578125 -11.671875 L 3.703125 -11.671875 L 8.875 -1.90625 L 8.875 -11.671875 L 10.40625 -11.671875 L 10.40625 0 L 8.28125 0 L 3.109375 -9.765625 L 3.109375 0 L 1.578125 0 Z M 1.578125 -11.671875 "/>
</symbol>
<symbol overflow="visible" id="glyph0-2">
<path style="stroke:none;" d="M 6.3125 -10.59375 C 5.164062 -10.59375 4.253906 -10.164062 3.578125 -9.3125 C 2.898438 -8.457031 2.5625 -7.296875 2.5625 -5.828125 C 2.5625 -4.359375 2.898438 -3.195312 3.578125 -2.34375 C 4.253906 -1.488281 5.164062 -1.0625 6.3125 -1.0625 C 7.457031 -1.0625 8.363281 -1.488281 9.03125 -2.34375 C 9.695312 -3.195312 10.03125 -4.359375 10.03125 -5.828125 C 10.03125 -7.296875 9.695312 -8.457031 9.03125 -9.3125 C 8.363281 -10.164062 7.457031 -10.59375 6.3125 -10.59375 Z M 6.3125 -11.875 C 7.945312 -11.875 9.253906 -11.328125 10.234375 -10.234375 C 11.210938 -9.140625 11.703125 -7.671875 11.703125 -5.828125 C 11.703125 -3.984375 11.210938 -2.507812 10.234375 -1.40625 C 9.253906 -0.3125 7.945312 0.234375 6.3125 0.234375 C 4.664062 0.234375 3.351562 -0.3125 2.375 -1.40625 C 1.394531 -2.507812 0.90625 -3.984375 0.90625 -5.828125 C 0.90625 -7.671875 1.394531 -9.140625 2.375 -10.234375 C 3.351562 -11.328125 4.664062 -11.875 6.3125 -11.875 Z M 6.3125 -11.875 "/>
</symbol>
<symbol overflow="visible" id="glyph0-3">
<path style="stroke:none;" d="M 1.578125 -11.671875 L 3.15625 -11.671875 L 3.15625 -6.890625 L 8.890625 -6.890625 L 8.890625 -11.671875 L 10.46875 -11.671875 L 10.46875 0 L 8.890625 0 L 8.890625 -5.5625 L 3.15625 -5.5625 L 3.15625 0 L 1.578125 0 Z M 1.578125 -11.671875 "/>
</symbol>
</g>
</defs>
<g id="surface52689">
<rect x="0" y="0" width="300" height="300" style="fill:rgb(100%,100%,100%);fill-opacity:1;stroke:none;"/>
<path style="fill:none;stroke-width:1.2;stroke-linecap:butt;stroke-linejoin:miter;stroke:rgb(0%,0%,0%);stroke-opacity:1;stroke-miterlimit:10;" d="M 59.898438 251.984375 L 60.710938 232.878906 "/>
<path style="fill:none;stroke-width:1.2;stroke-linecap:butt;stroke-linejoin:miter;stroke:rgb(0%,0%,100%);stroke-opacity:1;stroke-miterlimit:10;" d="M 60.710938 232.878906 L 61.519531 213.769531 "/>
<path style="fill:none;stroke-width:1.2;stroke-linecap:butt;stroke-linejoin:miter;stroke:rgb(0%,0%,100%);stroke-opacity:1;stroke-miterlimit:10;" d="M 61.519531 213.769531 L 45.375 203.515625 "/>
<path style="fill:none;stroke-width:1.2;stroke-linecap:butt;stroke-linejoin:miter;stroke:rgb(0%,0%,0%);stroke-opacity:1;stroke-miterlimit:10;" d="M 45.375 203.515625 L 29.234375 193.257812 "/>
<path style="fill:none;stroke-width:1.2;stroke-linecap:butt;stroke-linejoin:miter;stroke:rgb(0%,0%,0%);stroke-opacity:1;stroke-miterlimit:10;" d="M 95.425781 196.0625 L 78.472656 204.917969 "/>
<path style="fill:none;stroke-width:1.2;stroke-linecap:butt;stroke-linejoin:miter;stroke:rgb(0%,0%,100%);stroke-opacity:1;stroke-miterlimit:10;" d="M 78.472656 204.917969 L 61.519531 213.769531 "/>
<path style=" stroke:none;fill-rule:nonzero;fill:rgb(100%,100%,100%);fill-opacity:1;" d="M 55.519531 204.269531 L 67.519531 204.269531 L 67.519531 223.269531 L 55.519531 223.269531 Z M 55.519531 204.269531 "/>
<g style="fill:rgb(0%,0%,100%);fill-opacity:1;">
  <use xlink:href="#glyph0-1" x="55.519531" y="219.121094"/>
</g>
<path style="fill:none;stroke-width:1.2;stroke-linecap:butt;stroke-linejoin:miter;stroke:rgb(0%,0%,0%);stroke-opacity:1;stroke-miterlimit:10;" d="M 29.234375 193.257812 L 30.851562 155.042969 "/>
<path style="fill:none;stroke-width:1.2;stroke-linecap:butt;stroke-linejoin:miter;stroke:rgb(0%,0%,0%);stroke-opacity:1;stroke-miterlimit:10;" d="M 30.851562 155.042969 L 64.757812 137.339844 "/>
<path style="fill:none;stroke-width:1.2;stroke-linecap:butt;stroke-linejoin:miter;stroke:rgb(0%,0%,0%);stroke-opacity:1;stroke-miterlimit:10;" d="M 64.757812 137.339844 L 97.042969 157.847656 "/>
<path style="fill:none;stroke-width:1.2;stroke-linecap:butt;stroke-linejoin:miter;stroke:rgb(0%,0%,0%);stroke-opacity:1;stroke-miterlimit:10;" d="M 97.042969 157.847656 L 95.425781 196.0625 "/>
<path style="fill:none;stroke-width:1;stroke-linecap:butt;stroke-linejoin:miter;stroke:rgb(0%,0%,0%);stroke-opacity:1;stroke-miterlimit:10;" d="M 97.042969 157.847656 L 97.042969 157.847656 M 99.902344 156.941406 L 99.421875 156.019531 M 102.765625 156.039062 L 101.796875 154.1875 M 105.625 155.132812 L 104.175781 152.359375 M 108.484375 154.226562 L 106.554688 150.53125 M 111.34375 153.320312 L 108.929688 148.699219 M 114.203125 152.417969 L 111.308594 146.871094 M 117.0625 151.511719 L 113.6875 145.039062 M 119.925781 150.605469 L 116.0625 143.210938 M 122.785156 149.699219 L 118.441406 141.382812 M 125.644531 148.792969 L 120.816406 139.550781 M 128.503906 147.890625 L 123.195312 137.722656 M 131.363281 146.984375 L 125.574219 135.890625 M 134.074219 146.125 L 127.824219 134.160156 "/>
<path style="fill:none;stroke-width:1.2;stroke-linecap:butt;stroke-linejoin:miter;stroke:rgb(100%,0%,0%);stroke-opacity:1;stroke-miterlimit:10;" d="M 130.949219 140.144531 L 147.09375 150.398438 "/>
<path style="fill:none;stroke-width:1.2;stroke-linecap:butt;stroke-linejoin:miter;stroke:rgb(0%,0%,0%);stroke-opacity:1;stroke-miterlimit:10;" d="M 147.09375 150.398438 L 163.234375 160.652344 "/>
<path style=" stroke:none;fill-rule:nonzero;fill:rgb(100%,100%,100%);fill-opacity:1;" d="M 124.949219 130.644531 L 137.949219 130.644531 L 137.949219 149.644531 L 124.949219 149.644531 Z M 124.949219 130.644531 "/>
<g style="fill:rgb(100%,0%,0%);fill-opacity:1;">
  <use xlink:href="#glyph0-2" x="124.949219" y="145.496094"/>
</g>
<path style="fill:none;stroke-width:1.2;stroke-linecap:butt;stroke-linejoin:miter;stroke:rgb(0%,0%,0%);stroke-opacity:1;stroke-miterlimit:10;" d="M 158.738281 160.460938 L 157.929688 179.570312 "/>
<path style="fill:none;stroke-width:1.2;stroke-linecap:butt;stroke-linejoin:miter;stroke:rgb(100%,0%,0%);stroke-opacity:1;stroke-miterlimit:10;" d="M 157.929688 179.570312 L 157.121094 198.679688 "/>
<path style="fill:none;stroke-width:1.2;stroke-linecap:butt;stroke-linejoin:miter;stroke:rgb(0%,0%,0%);stroke-opacity:1;stroke-miterlimit:10;" d="M 167.730469 160.84375 L 166.921875 179.953125 "/>
<path style="fill:none;stroke-width:1.2;stroke-linecap:butt;stroke-linejoin:miter;stroke:rgb(100%,0%,0%);stroke-opacity:1;stroke-miterlimit:10;" d="M 166.921875 179.953125 L 166.113281 199.058594 "/>
<path style="fill:none;stroke-width:1;stroke-linecap:butt;stroke-linejoin:miter;stroke:rgb(0%,0%,0%);stroke-opacity:1;stroke-miterlimit:10;" d="M 197.140625 142.949219 L 197.140625 142.949219 M 194.28125 143.851562 L 194.761719 144.777344 M 191.421875 144.757812 L 192.386719 146.605469 M 188.558594 145.664062 L 190.007812 148.4375 M 185.699219 146.570312 L 187.628906 150.265625 M 182.839844 147.476562 L 185.253906 152.097656 M 179.980469 148.378906 L 182.875 153.925781 M 177.121094 149.285156 L 180.5 155.753906 M 174.257812 150.191406 L 178.121094 157.585938 M 171.398438 151.097656 L 175.742188 159.414062 M 168.539062 152 L 173.367188 161.246094 M 165.679688 152.90625 L 170.988281 163.074219 M 162.820312 153.8125 L 168.609375 164.902344 M 160.109375 154.671875 L 166.359375 166.636719 "/>
<path style=" stroke:none;fill-rule:nonzero;fill:rgb(100%,100%,100%);fill-opacity:1;" d="M 155.617188 189.367188 L 168.617188 189.367188 L 168.617188 208.367188 L 155.617188 208.367188 Z M 155.617188 189.367188 "/>
<g style="fill:rgb(100%,0%,0%);fill-opacity:1;">
  <use xlink:href="#glyph0-2" x="155.617188" y="204.21875"/>
</g>
<path style="fill:none;stroke-width:1.2;stroke-linecap:butt;stroke-linejoin:miter;stroke:rgb(0%,0%,0%);stroke-opacity:1;stroke-miterlimit:10;" d="M 197.140625 142.949219 L 179.433594 109.042969 "/>
<path style="fill:none;stroke-width:1.2;stroke-linecap:butt;stroke-linejoin:miter;stroke:rgb(0%,0%,0%);stroke-opacity:1;stroke-miterlimit:10;" d="M 197.140625 142.949219 L 214.847656 176.851562 "/>
<path style="fill:none;stroke-width:1.2;stroke-linecap:butt;stroke-linejoin:miter;stroke:rgb(0%,0%,0%);stroke-opacity:1;stroke-miterlimit:10;" d="M 197.140625 142.949219 L 214.09375 134.09375 "/>
<path style="fill:none;stroke-width:1.2;stroke-linecap:butt;stroke-linejoin:miter;stroke:rgb(100%,0%,0%);stroke-opacity:1;stroke-miterlimit:10;" d="M 214.09375 134.09375 L 231.046875 125.242188 "/>
<path style="fill:none;stroke-width:1.2;stroke-linecap:butt;stroke-linejoin:miter;stroke:rgb(0%,0%,0%);stroke-opacity:1;stroke-miterlimit:10;" d="M 179.433594 109.042969 L 141.597656 103.4375 "/>
<path style="fill:none;stroke-width:1.2;stroke-linecap:butt;stroke-linejoin:miter;stroke:rgb(0%,0%,0%);stroke-opacity:1;stroke-miterlimit:10;" d="M 196.457031 74.789062 L 179.433594 109.042969 "/>
<path style="fill:none;stroke-width:1.2;stroke-linecap:butt;stroke-linejoin:miter;stroke:rgb(0%,0%,0%);stroke-opacity:1;stroke-miterlimit:10;" d="M 141.597656 103.4375 L 135.238281 65.71875 "/>
<path style="fill:none;stroke-width:1.2;stroke-linecap:butt;stroke-linejoin:miter;stroke:rgb(0%,0%,0%);stroke-opacity:1;stroke-miterlimit:10;" d="M 135.238281 65.71875 L 169.140625 48.015625 "/>
<path style="fill:none;stroke-width:1.2;stroke-linecap:butt;stroke-linejoin:miter;stroke:rgb(0%,0%,0%);stroke-opacity:1;stroke-miterlimit:10;" d="M 169.140625 48.015625 L 196.457031 74.789062 "/>
<path style="fill:none;stroke-width:1.2;stroke-linecap:butt;stroke-linejoin:miter;stroke:rgb(0%,0%,0%);stroke-opacity:1;stroke-miterlimit:10;" d="M 214.847656 176.851562 L 194.335938 209.140625 "/>
<path style="fill:none;stroke-width:1.2;stroke-linecap:butt;stroke-linejoin:miter;stroke:rgb(0%,0%,0%);stroke-opacity:1;stroke-miterlimit:10;" d="M 220.390625 184.90625 L 203.984375 210.738281 "/>
<path style="fill:none;stroke-width:1.2;stroke-linecap:butt;stroke-linejoin:miter;stroke:rgb(0%,0%,0%);stroke-opacity:1;stroke-miterlimit:10;" d="M 253.0625 178.472656 L 214.847656 176.851562 "/>
<path style="fill:none;stroke-width:1.2;stroke-linecap:butt;stroke-linejoin:miter;stroke:rgb(0%,0%,0%);stroke-opacity:1;stroke-miterlimit:10;" d="M 194.335938 209.140625 L 212.042969 243.042969 "/>
<path style="fill:none;stroke-width:1.2;stroke-linecap:butt;stroke-linejoin:miter;stroke:rgb(0%,0%,0%);stroke-opacity:1;stroke-miterlimit:10;" d="M 212.042969 243.042969 L 250.257812 244.664062 "/>
<path style="fill:none;stroke-width:1.2;stroke-linecap:butt;stroke-linejoin:miter;stroke:rgb(0%,0%,0%);stroke-opacity:1;stroke-miterlimit:10;" d="M 216.242188 234.214844 L 246.816406 235.511719 "/>
<path style="fill:none;stroke-width:1.2;stroke-linecap:butt;stroke-linejoin:miter;stroke:rgb(0%,0%,0%);stroke-opacity:1;stroke-miterlimit:10;" d="M 250.257812 244.664062 L 270.765625 212.378906 "/>
<path style="fill:none;stroke-width:1.2;stroke-linecap:butt;stroke-linejoin:miter;stroke:rgb(0%,0%,0%);stroke-opacity:1;stroke-miterlimit:10;" d="M 270.765625 212.378906 L 253.0625 178.472656 "/>
<path style="fill:none;stroke-width:1.2;stroke-linecap:butt;stroke-linejoin:miter;stroke:rgb(0%,0%,0%);stroke-opacity:1;stroke-miterlimit:10;" d="M 261.019531 213.152344 L 246.855469 186.027344 "/>
<path style=" stroke:none;fill-rule:nonzero;fill:rgb(100%,100%,100%);fill-opacity:1;" d="M 219.046875 115.742188 L 244.046875 115.742188 L 244.046875 134.742188 L 219.046875 134.742188 Z M 219.046875 115.742188 "/>
<g style="fill:rgb(100%,0%,0%);fill-opacity:1;">
  <use xlink:href="#glyph0-2" x="219.046875" y="130.59375"/>
  <use xlink:href="#glyph0-3" x="231.640625" y="130.59375"/>
</g>
</g>
</svg>

<svg xmlns="http://www.w3.org/2000/svg" xmlns:xlink="http://www.w3.org/1999/xlink" width="300pt" height="300pt" viewBox="0 0 300 300"><defs><symbol overflow="visible"><path d="M.797 2.828v-14.11h8V2.83zm.906-.89h6.203v-12.33H1.703zm0 0"/></symbol><symbol overflow="visible" id="a"><path d="M1.578-11.672h2.125l5.172 9.766v-9.766h1.53V0H8.282L3.11-9.766V0H1.577zm0 0"/></symbol><symbol overflow="visible" id="b"><path d="M6.313-10.594c-1.15 0-2.06.43-2.735 1.28-.68.857-1.015 2.017-1.015 3.486 0 1.47.335 2.633 1.015 3.484.676.856 1.586 1.28 2.735 1.28 1.144.002 2.05-.424 2.718-1.28.665-.85 1-2.015 1-3.484 0-1.47-.335-2.63-1-3.484-.667-.852-1.573-1.282-2.717-1.282zm0-1.28c1.632 0 2.94.546 3.92 1.64.978 1.093 1.47 2.562 1.47 4.406 0 1.844-.492 3.32-1.47 4.422-.98 1.093-2.288 1.64-3.92 1.64-1.65 0-2.96-.546-3.938-1.64-.98-1.102-1.47-2.578-1.47-4.422 0-1.844.49-3.313 1.47-4.406.977-1.094 2.29-1.64 3.938-1.64zm0 0"/></symbol><symbol overflow="visible" id="c"><path d="M1.578-11.672h1.578v4.78H8.89v-4.78h1.58V0H8.89v-5.563H3.157V0H1.578zm0 0"/></symbol></defs><g><path fill="#fff" d="M0 0h300v300H0z"/><path d="M59.898 251.984l.813-19.105" stroke-width="1.2" stroke="#000" stroke-miterlimit="10" fill="none"/><path d="M60.71 232.88l.81-19.11M61.52 213.77l-16.145-10.254" stroke-width="1.2" stroke="#00f" stroke-miterlimit="10" fill="none"/><path d="M45.375 203.516l-16.14-10.258M95.426 196.063l-16.953 8.855" stroke-width="1.2" stroke="#000" stroke-miterlimit="10" fill="none"/><path d="M78.473 204.918L61.52 213.77" stroke-width="1.2" stroke="#00f" stroke-miterlimit="10" fill="none"/><path d="M55.52 204.27h12v19h-12zm0 0" fill="#fff"/><use xlink:href="#a" x="55.52" y="219.121" fill="#00f"/><path d="M29.234 193.258l1.618-38.215M30.852 155.043l33.906-17.703M64.758 137.34l32.285 20.508M97.043 157.848l-1.617 38.214" stroke-width="1.2" stroke="#000" stroke-miterlimit="10" fill="none"/><path d="M97.043 157.848m2.86-.907l-.48-.92m3.343.02l-.97-1.852m3.83.945l-1.45-2.774m4.308 1.867l-1.93-3.696m4.79 2.79l-2.414-4.62m5.273 3.718l-2.894-5.547m5.752 4.642l-3.374-6.473m6.238 5.565l-3.864-7.394m6.723 6.49l-4.344-8.317m7.205 7.41l-4.83-9.242m7.69 8.34l-5.31-10.167m8.168 9.26l-5.79-11.092m8.5 10.235l-6.25-11.965" stroke="#000" stroke-miterlimit="10" fill="none"/><path d="M130.95 140.145l16.144 10.253" stroke-width="1.2" stroke="#f00" stroke-miterlimit="10" fill="none"/><path d="M147.094 150.398l16.14 10.254" stroke-width="1.2" stroke="#000" stroke-miterlimit="10" fill="none"/><path d="M124.95 130.645h13v19h-13zm0 0" fill="#fff"/><use xlink:href="#b" x="124.949" y="145.496" fill="#f00"/><path d="M158.738 160.46l-.808 19.11" stroke-width="1.2" stroke="#000" stroke-miterlimit="10" fill="none"/><path d="M157.93 179.57l-.81 19.11" stroke-width="1.2" stroke="#f00" stroke-miterlimit="10" fill="none"/><path d="M167.73 160.844l-.808 19.11" stroke-width="1.2" stroke="#000" stroke-miterlimit="10" fill="none"/><path d="M166.922 179.953l-.81 19.106" stroke-width="1.2" stroke="#f00" stroke-miterlimit="10" fill="none"/><path d="M197.14 142.95m-2.86.902l.482.925m-3.34-.02l.965 1.848m-3.828-.94l1.448 2.773m-4.31-1.868l1.93 3.696m-4.788-2.79l2.414 4.622m-5.274-3.72l2.895 5.548m-5.754-4.64l3.38 6.468m-6.242-5.563l3.863 7.396m-6.722-6.488l4.344 8.316M168.54 152l4.827 9.246m-7.687-8.34l5.308 10.168m-8.168-9.262l5.79 11.09m-8.5-10.23l6.25 11.965" stroke="#000" stroke-miterlimit="10" fill="none"/><path d="M155.617 189.367h13v19h-13zm0 0" fill="#fff"/><use xlink:href="#b" x="155.617" y="204.219" fill="#f00"/><path d="M197.14 142.95l-17.706-33.907M197.14 142.95l17.708 33.902M197.14 142.95l16.954-8.856" stroke-width="1.2" stroke="#000" stroke-miterlimit="10" fill="none"/><path d="M214.094 134.094l16.953-8.852" stroke-width="1.2" stroke="#f00" stroke-miterlimit="10" fill="none"/><path d="M179.434 109.043l-37.836-5.606M196.457 74.79l-17.023 34.253M141.598 103.438l-6.36-37.72M135.238 65.72l33.903-17.704M169.14 48.016l27.317 26.773M214.848 176.852l-20.512 32.29M220.39 184.906l-16.406 25.832M253.063 178.473l-38.215-1.62M194.336 209.14l17.707 33.903M212.043 243.043l38.215 1.62M216.242 234.215l30.574 1.297M250.258 244.664l20.508-32.285M270.766 212.38l-17.704-33.907M261.02 213.152l-14.165-27.125" stroke-width="1.2" stroke="#000" stroke-miterlimit="10" fill="none"/><path d="M219.047 115.742h25v19h-25zm0 0" fill="#fff"/><g fill="#f00"><use xlink:href="#b" x="219.047" y="130.594"/><use xlink:href="#c" x="231.641" y="130.594"/></g></g></svg>
